X:1
T:Gavotte : Suite de l'Aven
%%scale 0.80
Z:Roger Ngaret (94-95)
R:gavotte
C:Trad.
S:
A:Bretagne
K:C
T:Gavotte
Q:1/4=130
M:4/4
L:1/16
K:Bb
d3c d2e2 f2d2 B4 | d3c d2e2 f4 f4 | d3c d2e2 f2d2 B4 | 
c3B c2d2 B4 B4 ||
c2c2 c2Bc d2d2 d4 | e3d c2d2 B2d2 f4 | c2c2 c2Bc d2d2 d4 | e3d c2d2 B2B2 B4 ||
B2d2 f3g f2d2 f4 | f2ed c2e2 d4 B4 | B2d2 f3g f2d2 f4 | f2ed c2d2 B4 B4 ||
b4 a2g2 f2d2 f4 | f2ed c2e2 d4 B4 | b4 a2g2 f2d2 f4 | f2ed c2d2 B4 B4 |:
B2d2 c2d2 B2d2 c3B | c2d2 e2d2 c4 B4 :|
f4 f2d2 g4 g4 | f4 f2d2 f2ed (c4 | c2) c2 B3c d2e2 g4 | f4 f4 e4 d4 ||
f4 b4 a4 g4 | f2d2 f2ed c6 c2 | B3c d2e2 g4 f4 | d2ed c2dc B4 B4 ||
d4 d4 c2d2 e4 | d2e2 f2e2 d2c2 d2B2 | d4 d4 c2d2 e4 | d2e2 f2e2 d2c2 B4 ||
B2d2 B2d2 f2ed c4 | c2d2 e2f2 d4 B4 | B2d2 B2d2 f2ed c2B2 | A2B2 c2d2 B4 B4 |:
f4 e2f2 e2d2 c2B2 | f4 {gf}e2 f2 e2d2 c4 :: B4 c2d2 e2dc f2d2 | B4 A2B2 c2d2 B4 :|
%%newpage
T:Bal  deux (1)
Q:3/8=100
M:6/8
L:1/16
e2d2e2 c4 f2 | f4 e2 d2c2B2 | e2d2e2 c2d2e2 | f4 d2 B6 :|
Q:1/4=130
M:4/4
L:1/16
|: f2B2 (3d2c2d2 f2B2 d4 | (3d2c2d2 e2c2 (3c2B2c2 d2B2 |
f2B2 (3e2B2e2 f2B2 d4 | (3d2c2d2 f2f2 (3e2d2c2 B4 :|
T:Bal  deux (2)
Q:3/8=100
M:6/8
L:1/16
f2 |: f2d2f2 e2c2e2 | d2B2d2 c4 | f2d2f2 e2c2e2 | d2B2d2 c4 :|
Q:1/4=130
M:4/4
L:1/16
|: ddec d4 ddec d4 | ddBd (3f2d2f2 (3e2d2c2 d4 |
ddec d4 ddec d4 | ddBd f2B2 (3c2B2A2 B4 :|
T:Bal  quatre (1)
Q:1/4=100
B2d2 f2f2 (3e2f2e2 d2d2 | B2d2 f2B2 (3c2B2A2 B4 :|
Q:1/4=130
|: (3f2g2a2 b2f2 b2f2 b4 | (3c2d2e2 f4 (3f2e2d2 (3c2d2e2 |
f2d2 B2B2 (3B2A2B2 c4 | (3c2d2e2 f2B2 c2A2 B4 :|
T:Bal  quatre (2)
Q:1/4=100
f2d2 B2d2 (3c2B2A2 B4 | f2d2 B2d2 (3c2B2A2 B4 :|
Q:1/4=130
|: g4 b4 g2f2 e2g2 | g2e2 f2d2 e4 e4 |
g4 b4 g2f2 e2g2 | g2e2 f2d2 e4 e4 :|
